X:1
T:Praeludium
T:Praeludium
T:(Prelude) BWV 846 no. 1
T:Johann Sebastian Bach
C:Johann Sebastian Bach
%%score 1 2 3
L:1/8
Q:1/4=80
M:4/4
K:C
V:1 treble 
V:2 treble 
V:3 treble 
V:1
 z G/c/ e/G/c/e/ z G/c/ e/G/c/e/ | z A/d/ f/A/d/f/ z A/d/ f/A/d/f/ | %2
 z G/d/ f/G/d/f/ z G/d/ f/G/d/f/ | z G/c/ e/G/c/e/ z G/c/ e/G/c/e/ | %4
 z A/e/ a/A/e/a/ z A/e/ a/A/e/a/ | z ^F/A/ d/F/A/d/ z F/A/ d/F/A/d/ | %6
 z G/d/ g/G/d/g/ z G/d/ g/G/d/g/ | z E/G/ c/E/G/c/ z E/G/ c/E/G/c/ | %8
 z E/G/ c/E/G/c/ z E/G/ c/E/G/c/ | z D/^F/ c/D/F/c/ z D/F/ c/D/F/c/ | %10
 z D/G/ B/D/G/B/ z D/G/ B/D/G/B/ | z E/G/ ^c/E/G/c/ z E/G/ c/E/G/c/ | %12
 z D/A/ d/D/A/d/ z D/A/ d/D/A/d/ | z D/F/ B/D/F/B/ z D/F/ B/D/F/B/ | %14
 z C/G/ c/C/G/c/ z C/G/ c/C/G/c/ | z A,/C/ F/A,/C/F/ z A,/C/ F/A,/C/F/ | %16
 z A,/C/ F/A,/C/F/ z A,/C/ F/A,/C/F/ | z G,/B,/ F/G,/B,/F/ z G,/B,/ F/G,/B,/F/ | %18
 z G,/C/ E/G,/C/E/ z G,/C/ E/G,/C/E/ | z _B,/C/ E/B,/C/E/ z B,/C/ E/B,/C/E/ | %20
 z A,/C/ E/A,/C/E/ z A,/C/ E/A,/C/E/ | z A,/C/ _E/A,/C/E/ z A,/C/ E/A,/C/E/ | %22
 z B,/C/ D/B,/C/D/ z B,/C/ D/B,/C/D/ | z G,/B,/ D/G,/B,/D/ z G,/B,/ D/G,/B,/D/ | %24
 z G,/C/ E/G,/C/E/ z G,/C/ E/G,/C/E/ | z G,/C/ F/G,/C/F/ z G,/C/ F/G,/C/F/ | %26
 z G,/B,/ F/G,/B,/F/ z G,/B,/ F/G,/B,/F/ | z A,/C/ ^F/A,/C/F/ z A,/C/ F/A,/C/F/ | %28
 z G,/C/ G/G,/C/G/ z G,/C/ G/G,/C/G/ | z G,/C/ F/G,/C/F/ z G,/C/ F/G,/C/F/ | %30
 z G,/B,/ F/G,/B,/F/ z G,/B,/ F/G,/B,/F/ | z G,/_B,/ E/G,/B,/E/ z G,/B,/ E/G,/B,/E/ | %32
 z F,/A,/ C/F/C/A,/ C/A,/F,/A,/ F,/D,/F,/D,/ | z G/B/ d/f/d/B/ d/B/G/B/ D/F/E/D/ | [EGc]8 |] %35
V:2
 z/ E7/2 z/ E7/2 | z/ D7/2 z/ D7/2 | z/ D7/2 z/ D7/2 | z/ E7/2 z/ E7/2 | z/ E7/2 z/ E7/2 | %5
 z/ D7/2 z/ D7/2 | z/ D7/2 z/ D7/2 | z/ C7/2 z/ C7/2 | z/ C7/2 z/ C7/2 | z/ A,7/2 z/ A,7/2 | %10
 z/ B,7/2 z/ B,7/2 | z/ _B,7/2 z/ B,7/2 | z/ A,7/2 z/ A,7/2 | z/ _A,7/2 z/ A,7/2 | %14
 z/ G,7/2 z/ G,7/2 | z/ F,7/2 z/ F,7/2 | z/ F,7/2 z/ F,7/2 | z/ D,7/2 z/ D,7/2 | %18
 z/ E,7/2 z/ E,7/2 | z/ G,7/2 z/ G,7/2 | z/ F,7/2 z/ F,7/2 | z/ C,7/2 z/ C,7/2 | %22
 z/ F,7/2 z/ F,7/2 | z/ F,7/2 z/ F,7/2 | z/ E,7/2 z/ E,7/2 | z/ D,7/2 z/ D,7/2 | %26
 z/ D,7/2 z/ D,7/2 | z/ _E,7/2 z/ E,7/2 | z/ E,7/2 z/ E,7/2 | z/ D,7/2 z/ D,7/2 | %30
 z/ D,7/2 z/ D,7/2 | z/ C,7/2 z/ C,7/2 | z/ C,/ x7 | z/ B,,/ x7 | C,8 |] %35
V:3
 C4 C4 | C4 C4 | B,4 B,4 | C4 C4 | C4 C4 | C4 C4 | B,4 B,4 | B,4 B,4 | A,4 A,4 | D,4 D,4 | %10
 G,4 G,4 | G,4 G,4 | F,4 F,4 | F,4 F,4 | E,4 E,4 | E,4 E,4 | D,4 D,4 | G,,4 G,,4 | C,4 C,4 | %19
 C,4 C,4 | F,,4 F,,4 | ^F,,4 F,,4 | _A,,4 A,,4 | G,,4 G,,4 | G,,4 G,,4 | G,,4 G,,4 | G,,4 G,,4 | %27
 G,,4 G,,4 | G,,4 G,,4 | G,,4 G,,4 | G,,4 G,,4 | C,,4 C,,4 | C,,8 | C,,8 | C,,8 |] %35

